X: 42786
T: White, Orange And Green
R: waltz
M: 3/4
K: Gmajor
GA|B2 A<B G<E|DE GG G2|zG>B ddB|G B>A BA2|
z GB ddB|de dB A2|G A<B A<B G|ED EG G<G|

